src/assets/volume_muted.svg

<svg xmlns="http://www.w3.org/2000/svg" width="24px" height="24px" viewBox="0 0 24 24">
  <g stroke="none" stroke-width="1" fill="none" fill-rule="evenodd">
    <rect x="0" y="0" width="24" height="24"/>
    <path fill="#648fc1" d="M8.69515574,8.10490176 L5.30059418,4.70955684 C4.91010175,4.3189743 4.91013827,3.68579919 5.30067576,3.2952617 C5.691155,2.90478246 6.32424693,2.90478246 6.71472617,3.2952617 C6.71475336,3.29528889 6.71478055,3.29531608 6.71480774,3.29534328 L20.7014816,17.2852448 C21.091974,17.6758274 21.0919375,18.3090025 20.7014,18.6995399 C20.3109208,19.0900192 19.6778288,19.0900192 19.2873496,18.6995399 C19.2873224,18.6995128 19.2872952,18.6994856 19.287268,18.6994584 L16,15.4114318 L16,20 C16,20.5522847 15.5522847,21 15,21 C14.3585404,21 13.742154,20.7508682 13.2808452,20.3051501 L7.79012894,15 L5,15 C3.8954305,15 3,14.1045695 3,13 L3,11 C3,9.8954305 3.8954305,9 5,9 L7.76499939,9 L8.69515574,8.10490176 Z M11.5743247,5.33425023 L13.2794445,3.69339732 C13.7417494,3.24851695 14.3584048,3 15,3 C15.5522847,3 16,3.44771525 16,4 L16,9.7599255 L11.5743247,5.33425023 Z"/>
  </g>
</svg>

<svg xmlns="http://www.w3.org/2000/svg" width="24" height="24"><g fill="none" fill-rule="evenodd"><path d="M0 0h24v24H0z"/><path fill="#648fc1" d="M8.7 8.1L5.3 4.71A1 1 0 0 1 6.71 3.3l14 13.99a1 1 0 0 1-1.42 1.41L16 15.4V20a1 1 0 0 1-1 1c-.64 0-1.26-.25-1.72-.7L7.8 15H5a2 2 0 0 1-2-2v-2c0-1.1.9-2 2-2h2.76l.94-.9zm2.87-2.77l1.7-1.64C13.75 3.25 14.37 3 15 3a1 1 0 0 1 1 1v5.76l-4.43-4.43z"/></g></svg>
